X: 37051
T: Silver Shroud, The
R: polka
M: 2/4
K: Aminor
|:A3/2B/ ce|fd ec|A3/2B/ ce|dG AB|
A3/2B/ ce|fd ec|f/e/d ec|dG AB:|
|:cg d2|cd GA|F3/2G/ Ac|ec d2
cg d2|cd GA|F3/2G/ Ac|1 ec d2:|2 ec dc||

